archdroid-icon-theme/Archdroid-Blue/apps/scalable/accessories-text-editor.svg

<?xml version="1.0" encoding="UTF-8" standalone="no"?>
<svg
   xmlns:dc="http://purl.org/dc/elements/1.1/"
   xmlns:cc="http://creativecommons.org/ns#"
   xmlns:rdf="http://www.w3.org/1999/02/22-rdf-syntax-ns#"
   xmlns:svg="http://www.w3.org/2000/svg"
   xmlns="http://www.w3.org/2000/svg"
   xmlns:sodipodi="http://sodipodi.sourceforge.net/DTD/sodipodi-0.dtd"
   xmlns:inkscape="http://www.inkscape.org/namespaces/inkscape"
   width="48"
   height="48"
   viewBox="0 0 48 48"
   id="svg2"
   version="1.1"
   inkscape:version="0.91 r13725"
   sodipodi:docname="accessories-text-editor.svg"
   style="fill:#2196F3">
  <metadata
     id="metadata10">
    <rdf:RDF>
      <cc:Work
         rdf:about="">
        <dc:format>image/svg+xml</dc:format>
        <dc:type
           rdf:resource="http://purl.org/dc/dcmitype/StillImage" />
        <dc:title></dc:title>
      </cc:Work>
    </rdf:RDF>
  </metadata>
  <defs
     id="defs8" />
  <sodipodi:namedview
     pagecolor="#ffffff"
     bordercolor="#666666"
     borderopacity="1"
     objecttolerance="10"
     gridtolerance="10"
     guidetolerance="10"
     inkscape:pageopacity="0"
     inkscape:pageshadow="2"
     inkscape:window-width="1366"
     inkscape:window-height="713"
     id="namedview6"
     showgrid="false"
     inkscape:snap-bbox="true"
     inkscape:bbox-nodes="true"
     inkscape:snap-page="true"
     inkscape:zoom="2.604313906705789"
     inkscape:cx="-80.73894315639552"
     inkscape:cy="-3.338301237205265"
     inkscape:window-x="0"
     inkscape:window-y="30"
     inkscape:window-maximized="1"
     inkscape:current-layer="svg2"
     fit-margin-top="0"
     fit-margin-left="0"
     fit-margin-right="0"
     fit-margin-bottom="0" />
  <path
     id="path4140"
     style="fill:#2196F3;fill-opacity:1"
     d="m 8.00499999999999,40.5 0,7.5 L 15.505,48 37.635,25.87 30.13499999999998,18.37 8.00499999999999,40.5 Z M 43.41499999999999,20.09 C 44.195,19.31 44.195,18.04 43.41499999999999,17.26 L 38.745,12.59 c -0.77999999999999,-0.78 -2.05,-0.78 -2.83000000000001,0 L 32.255,16.25 l 7.5,7.5 3.65999999999999,-3.66 z M 7.999999999999999,0 c -2.210000000000003,0 -3.98046875,1.79 -3.98046875,4 l -0.01953125,32 c 0,1.30052634372081 0.623258727842659,2.44338549805228 1.578125000000002,3.173828125 L 12.751953125,32 12,32 l 0,-4 4.75390625,0 4,-4 L 12,24 12,20 24.75390625,20 30.380859375,14.373046875 30.75390625,14 22,14 22,3 l 9.876953125,9.876953125 2.5,-2.5 L 24,0 l -16,0 z M 36,31.255859375 27.255859375,40 32,40 c 2.21,0 4,-1.79 4,-4 l 0,-4.744140625 z" />
</svg>

<svg xmlns="http://www.w3.org/2000/svg" viewBox="0 0 48 48" fill="#2196F3"><path d="m8 40.5v7.5h7.5l22.13-22.13-7.5-7.5-22.13 22.13m35.41-20.41c.78-.78.78-2.05 0-2.83l-4.67-4.67c-.78-.78-2.05-.78-2.83 0l-3.66 3.66 7.5 7.5 3.66-3.66zm-35.415-20.09c-2.21 0-3.98 1.79-3.98 4l-.02 32c0 1.301.623 2.443 1.578 3.174l7.174-7.174h-.752v-4h4.754l4-4h-8.754v-4h12.754l5.627-5.627.373-.373h-8.754v-11l9.877 9.877 2.5-2.5-10.377-10.377h-16m28 31.26l-8.744 8.744h4.744c2.21 0 4-1.79 4-4v-4.744" fill="#2196F3"/></svg>
